src/assets/flags/sj.svg

<?xml version="1.0" encoding="UTF-8"?>
<svg xmlns="http://www.w3.org/2000/svg" xmlns:xlink="http://www.w3.org/1999/xlink" width="25px" height="px" viewBox="0 0 25 19" version="1.1">
<g id="surface1">
<rect x="0" y="0" width="25" height="19" style="fill:rgb(93.725491%,16.862746%,17.647059%);fill-opacity:1;stroke:none;"/>
<path style=" stroke:none;fill-rule:nonzero;fill:rgb(100%,100%,100%);fill-opacity:1;" d="M 7.03125 0 L 11.71875 0 L 11.71875 19 L 7.03125 19 Z M 7.03125 0 "/>
<path style=" stroke:none;fill-rule:nonzero;fill:rgb(100%,100%,100%);fill-opacity:1;" d="M 0 7.125 L 25 7.125 L 25 11.875 L 0 11.875 Z M 0 7.125 "/>
<path style=" stroke:none;fill-rule:nonzero;fill:rgb(0%,15.686275%,40.784314%);fill-opacity:1;" d="M 8.203125 0 L 10.546875 0 L 10.546875 19 L 8.203125 19 Z M 8.203125 0 "/>
<path style=" stroke:none;fill-rule:nonzero;fill:rgb(0%,15.686275%,40.784314%);fill-opacity:1;" d="M 0 8.3125 L 25 8.3125 L 25 10.6875 L 0 10.6875 Z M 0 8.3125 "/>
</g>
</svg>

<svg xmlns="http://www.w3.org/2000/svg" width="25" height="px" viewBox="0 0 25 19"><path d="M0 0h25v19H0z" style="fill:#ef2b2d;fill-opacity:1;stroke:none"/><path d="M7.031 0h4.688v19H7.03Zm0 0" style="stroke:none;fill-rule:nonzero;fill:#fff;fill-opacity:1"/><path d="M0 7.125h25v4.75H0Zm0 0" style="stroke:none;fill-rule:nonzero;fill:#fff;fill-opacity:1"/><path d="M8.203 0h2.344v19H8.203Zm0 0" style="stroke:none;fill-rule:nonzero;fill:#002868;fill-opacity:1"/><path d="M0 8.313h25v2.374H0Zm0 0" style="stroke:none;fill-rule:nonzero;fill:#002868;fill-opacity:1"/></svg>
